X:1
T:Gregem tuum
T:Gregem tuum
T:Anonymus
C:Anonymus
%%score [ 1 [ 2 3 ] 4 ]
L:1/8
Q:1/4=120
M:2/2
K:F
V:1 treble nm="Soprano" snm="S"
V:2 treble-8 nm="Tenor 1" snm="T 1"
V:3 treble-8 nm="Tenor 2" snm="T 2"
V:4 bass nm="Bass" snm="B"
V:1
 z8 | z4 A4- | A2 A2 B4 | A4 z2 G2 | A2 B2 c4 | A2 c3 BAG | FEFG A2 B2- | B2 AG F2 DE | FG A4 G2 | %9
w: |Gre-|* gem tu-|um pa-|stor ae- ter-|ne non _ _ _|_ _ _ _ _ de-||* * * se-|
 A4 z4 | z8 | z4 A4- | A4 A4 | B4 A4 | z2 G2 A2 B2 | c4 B2 A2- | AF G2 A2 A2 | A2 G2 F3 E/D/ | %18
w: ras,||gre-|* gem|tu- um|pa- stor ae-|ter- ne non|_ _ _ de- se-|ras, non de- * *|
 CDEF ED D2- | D2 C2 D4- | D4 z2 A2 | B6 G2 | B4 A4 | z2 A2 c2 c2 | G2 B2 A2 FG | AB c3 BGA | %26
w: |* se- ras,|_ sed|per be-|a- tos|An- ge los|tu- * * * *||
 B2 A4 G2- | G2 F3 GAB |"^#" AG G4 F2 | G8 |: z8 | z8 | z8 | z2 d2 d2 d2 | c2 A2 B3 c | d4 A2 d2 | %36
w: |||os,||||per- pe- tu-|a de- fen- si-|o- ne cu-|
 d2 c2 B2 AG | B4 A2 F2 | G2 A2 B3 G | A4 G4 | z4 d4 | d2 d2 c2 A2 | B3 c d4 | A2 A2 A2 A2 | %44
w: to- * * * *|||di- as,|per-|pe- tu- a de-|fen- si- o-|ne, per- pe- tu-|
 G2 E2 F3 G | A4 E2 G2 |1 F2 E3 D D2- ||"^#" D2 C2 D4- | D4 z4 | z8 | z2 G4 F2 | B4 A4- | %52
w: a cus- to- *|||* di- as,|_||ut a|no- stris|
 A2 G2 F2 E2 | F2 D2 F2 G2 | A6 GF | ED E2 D4 | z4 z2 D2 | D2 E2 F2 D2- | D2 G2 F2 DE | FG A4 G2 | %60
w: _ re- a- ti-|bus ab- so- lu-||* * * tos,|a|cun- ctis quo- que|_ pe- ri- * *|* * * cu-|
 A2 A2 A2 B2 | c4 B2 G2 | B2 B2 A3 G | F2 E2 DEFG | AFGA BGAB |"^#" AG G4 F2 | G8 :| %67
w: lis a cun- ctis|quo- que pe-|ri- cu- lis, _|_ pe- ri- * * *||* * * cu-|lis,|
"^#" D2 C2 D4- ||2 D8- || D8- | D8- | D8 |] %72
w: * di- as.|_||||
V:2
 d6 d2 |"^b" e4 d4 | z2 c2 d2 e2 | f3 e/d/ f2 e2 | d3 c/B/ A2 c2 | d2 e2 f3 e | d2 cB A2 d2- | %7
w: Gre- gem|tu- um|pa- stor ae-|ter- * * ne, ae-|ter- * * ne non|de- se- ras, non|de- * * * *|
w: |||||||
 d2 c2 d2 f2- | fd e2 f2 e2 | c2 c2 d2 e2 | f3 e/d/ f2 e2 | d2 cB A4 | z8 | d6 d2 | e4 d4 | %15
w: * se- ras, non|_ _ _ de- se-|ras, pa- stor ae-|ter- * * ne non|de- se- * ras,||gre- gem|tu- um|
w: ||||||||
 z2 c2 d2 e2 | f2 ed c4- | c4 z2 F2- | F2 E2 F2 G2 | A6 F2 | B2 B2 A4 | z2 G2 GABc | dcde f2 d2 | %23
w: pa- stor ae-|ter- * * ne,|_ Pa-|* stor ae- ter-|ne non|de- se- ras,|sed per _ _ _|_ _ _ _ _ be-|
w: ||||||||
 f2 f2 c2 e2 | d2 f2 e2 d2 | c3 d efge | f2 FG ABcA | Bc d3 Bcd | e2 c2 d4- | d2 d/c/B/A/ B4 |: %30
w: a- tos An- ge-|los tu- os, An-|ge- * * * * *|los tu- * * * * *||||
w: |||||||
"^1." A4 z4 | z8 | z2 g2 g2 g2 | f6 d2 | e2 f2 g4 | d2 g2 f2 ed | e2 e2 d4 | z2 d2 d2 d2 | %38
w: os,||per- pe- tu-|a de-|fen- si- o-|ne cu- sto- * *|* di- as,|per- pe- tu-|
w: lis||||||||
 c2 A2 B4 | c2 d4 G2 | A2 BA Bc d2- | dG g4 f2 | g2 d3 e f2- | f2 ed e2 c2 | d2 c2 A3 B | %45
w: a de- fen-|si- o- e|cu- sto- * * * *|* * * di-|as, cu- * *|* * sto- * *||
w: |||||||
 c2 A4 G2 |1 A8 || z2 A4 F2 | B4 A4 | GABc de f2- | f2 ed c2 d2 | d2 B2 c2 d2 |"^#" A2 d4 c2 | d8 | %54
w: * * di-|as,|ut a|no- stris|re- * * * * * a-||ti- bus ab- so-|lu- * *|tos,|
w: |||||||||
 z2 A2 A2 B2 | c2 A2 B2 d2- | d2 c3 A B2 | A2 G2 A4 | GABc defe | dcBA B4 | A4 z2 d2 | %61
w: a cun- ctis|quo- que pe- ri-||* cu- lis,|pe- * * * ri- * * *|* * * * cu-|lis, pe-|
w: |||||||
 c2 A2 B2 d2 | d2 e2 f3 e | d2 cB A2 d2- | d2 Bc de f2- |"^b" f2 e2 d4 | d2 d/c/B/A/ B2 B2 :| %67
w: ri- cu- lis, a|cun- ctis quo- *|que _ _ _ pe-|* ri- * * * *||* * * * * * cu-|
w: ||||||
 A8 ||2 z2 G4 F2 || B6 AG | A2 B2 A4- | A8 |] %72
w: as,|cu- sto-||* di- as.|_|
w: |||||
V:3
 z8 | z8 | z8 | z8 | z8 | z8 | z8 | z4 A4- | A2 A2 B4 | A4 z2 G2 | A2 B2 c4 | A2 c3 BAG | %12
w: |||||||Gre-|* gem tu-|um pa-|stor ae- ter-|ne non _ _ _|
"^#" FD G4 F2 | G2 G2 D4 | z4 z2 G2- | G2 A2 B2 c2 | A2 c3 BAG | ABcA B2 A2- | AFGA GFED | %19
w: _ _ de- *|* se- ras,|pa-|* stor ae- ter-|ne non _ _ _|_ _ _ _ _ de-||
 E2 E2 D2 A2- |"^#" AG G4 F2 | G4 z2 G2 | GABc d2 D2 | DEFG AB c2- | c2 B2 c2 d2 | A4 z4 | %26
w: * se- ras, non|_ _ de- se-|ras, sed|per _ _ _ _ be-|a- * * * * * *||tos|
 z2 A2 c2 c2 | G2 B2 A2 c2- | cBAG A4 | G4 z2 d2 |:"^2." d2 d2 c2 A2 | BA Bc d4 | A2 d2 d2 c2 | %33
w: An- ge- los|tu- * * *||os, per-|pe- tu- a de-|fen _ si- * o-|ne cu- sto- di-|
 d4 z2 B2 | c2 d2 G2 G2 | B3 c d2 B2 | A4 z4 | z8 | z2 d2 d2 d2 | c2 A2 B2 c2 | d3 c B2 A2 | %41
w: as, de-|fen si- o- nem|cu- * sto- di-|as,||per- pe- tu-|a de- fen- si-|o _ ne cu-|
 B2 G2 c2 c2 | B6 AG | FG AB c4 | z2 A3 G F2 | E2 F2 E2 D2- |1 D2 C2 E2 F2 || E4 D4 | z2 G4 F2 | %49
w: sto- * * di-|as, cu- *|sto _ di- * as,|de- * *|fen- si- o- ne|_ cu- sto- *|di- as,|ut a|
 B4 A4 | z4 z2 D2 | D2 G2 F2 D2 | F2 G2 A4 | DEFG A2 B2 | c2 d2 A2 d2- | d2 c2 d4 | z8 | z8 | z8 | %59
w: no- stris|re-|a- ti bus ab-|so- lu- tos,|ab- * * * * so-|lu- * * *|* * tos,||||
 z2 D2 D2 E2 | F2 D2 E2 G2- | G2 F2 G4 | D2 G2 F2 D2 | G2 G2 A4 | F2 B4 A2 | B3 c A4 | G4 z2 d2 :| %67
w: a cun- ctis|quo- que pe- ri-|* cu- lis,|a cun- ctis quo-|que pe- ri-||* * cu-|lis, per-|
 E4 D2 F2 ||2 G2 B4 A2 || G2 G2 ^F4- | F8- | F8 |] %72
w: di- as cu-|sto- * *|* di- as.|_||
V:4
 z8 | z8 | z8 | z8 | z8 | z8 | D,6 D,2 |"^b" E,4 D,4 | z2 C,2 D,2 E,2 | F,3 E,/D,/ F,2 E,2 | %10
w: ||||||Gre- gem|tu- um|pa- stor ae-|ter- * * ne non|
 D,3 C,/B,,/ A,,2 C,2 | D,2 E,2 F,3 E, | D,2 C,B,, C,2 D,2 | G,,2 G,4 F,2 | G,2 C,2 F,2 G,2 | %15
w: de- * * * *||* * * * se-|ras, non de-|se- * * *|
 C,4 z2 C,2 | D,2 E,2 F,3 E,/D,/ | F,2 E,2 D,3 C,/B,,/ | A,,2 C,2 B,,2 B,,2 | A,,4 z2 D,2 | %20
w: ras, pa-|stor ae- ter- * *|* ne non _ _|_ de- * se-|ras, sed|
 B,,2 G,,2 D,4 | G,,8- | G,,4 z4 | z8 | z4 z2 D,2 | F,2 F,2 C,2 E,2 | D,4 z4 | z2 D,2 F,2 F,2 | %28
w: per be- a-|tos|_||An-|ge- los tu- *|os,|An- ge- los|
"^b" C,2 E,2 D,4 | G,,2 G,2 G,2 G,2 |: F,2 D,2 E,2 F,2 | G,4 D,2 G,2 | F,2 E,D, E,2 E,2 | D,8 | %34
w: tu- * *|os, per- pe- tu-|a de- fen si-|o- ne cu-|sto- * * * di-|as,|
 z8 | z8 | z4 z2 G,2 | G,2 G,2 F,2 D,2 | E,2 F,2 G,4 | C,2 F,2 G,2 E,2 | D,2 G,4 F,2 | %41
w: ||per-|pe- tu- a de-|fen- si- o-|na cu- sto- *||
 G,2 B,2 A,4 | G,4 z2 D,2 | D,2 D,2 C,2 A,,2 | B,,2 C,2 D,4 | A,,2 D,2 C,2 B,,2 |1 A,,8- || %47
w: * * di-|as, per-|pe- tu- a de-|fen- si- o-|ne cu- sto- di-|as,|
 A,,4 z2 D,2- | D,2 B,,2 C,2 D,2 | G,,2 G,4 F,2 | B,4 A,4 | z8 | z8 | z2 D,2 D,2 G,2 | %54
w: _ ut|_ a no- *|stris, ut a|no- stris,|||be- a- ti-|
 F,2 D,2 F,2 G,2 | A,4 z2 D,2 | D,2 E,2 F,2 D,2- | D,2 G,4 F,2 | G,2 G,2 D,4- | D,4 z4 | %60
w: bus ab- so- lu-|tos, a|cun- ctis quo- que|_ pe- ri-|* cu- lis,|_|
 D,4 C,2 B,,2 | A,,4 G,,4- | G,,4 z2 D,2 | D,2 E,2 F,2 D,2- | D,2 G,4 F,2 | G,2 G,2 D,4 | %66
w: pe- ri- *|cu- lis,|_ a|cun- ctis quo- que|_ pe- ri-|* cu- lis,|
 z2 G,2 G,2 G,2 :| A,,4 D,4 ||2 z4 D,4 || B,,2 G,,2 D,4- | D,8- | D,8 |] %72
w: per- pe- tu|(as) _|cu-|sto- di- as.|_||

